X:1943
T:Bourrée à Ranvier
M:3/8
L:1/16
K:C
c2Bcde|def2ef|g2egfe|dcdec2|\
Bcdcde|f2d2ef|gagfef|1 g6:|2 g4ef||
|:gfdec2|B2c4|d2cde2|d2efg2|\
fedec2|B2c4|dec2B2|1 c4ef:|2c6||


